src/assets/top_menu_signals.svg

<svg width="48" height="50" viewBox="0 0 48 50" fill="none" xmlns="http://www.w3.org/2000/svg">
<path d="M21.7795 25.0024C21.7795 26.5745 23.0749 27.8176 24.6293 27.8176C26.2207 27.8176 27.4791 26.538 27.4791 25.0024C27.4791 23.4303 26.1837 22.1873 24.6293 22.1873C23.0379 22.1507 21.7795 23.4303 21.7795 25.0024Z" fill="url(#paint0_linear)"/>
<path d="M32.2902 25.0029C32.2902 28.074 30.4398 30.7063 27.738 31.9128L28.2562 33.0096C31.365 31.6569 33.5116 28.5492 33.5116 25.0029C33.5116 21.4566 31.365 18.3855 28.2932 17.0328L27.738 18.1296C30.4398 19.2995 32.2902 21.9318 32.2902 25.0029Z" fill="url(#paint1_linear)"/>
<path d="M17.0053 25.0024C17.0053 21.8217 19.0038 19.0797 21.8535 17.9829L21.2984 16.886C18.0785 18.2022 15.7839 21.3464 15.7839 25.0024C15.7839 28.6584 18.0785 31.8392 21.3354 33.1188L21.8535 32.022C19.0038 30.8886 17.0053 28.1831 17.0053 25.0024Z" fill="url(#paint2_linear)"/>
<path d="M19.5589 36.8114L20.0771 35.7146C15.8579 33.9597 12.8601 29.7918 12.8601 25.0024C12.8601 20.213 15.8209 16.0817 20.003 14.3268L19.4479 13.23C14.8587 15.2043 11.6018 19.7378 11.6018 25.0024C11.6388 30.3037 14.8957 34.8371 19.5589 36.8114Z" fill="url(#paint3_linear)"/>
<path d="M30.1436 13.3401L29.5885 14.437C33.6225 16.3015 36.3983 20.3231 36.3983 25.0029C36.3983 29.7191 33.5485 33.7773 29.4404 35.6053L29.9586 36.7021C34.4738 34.6913 37.6566 30.1944 37.6566 25.0029C37.6566 19.8479 34.5478 15.3875 30.1436 13.3401Z" fill="url(#paint4_linear)"/>
<path d="M32.2532 9.06219L31.698 10.159C37.0275 12.8645 40.7284 18.4947 40.7284 25.0024C40.7284 31.6198 36.9164 37.3232 31.439 39.9556L31.9571 41.0524C37.8787 38.2372 41.9868 32.0951 41.9868 24.9659C41.9868 17.9829 38.0267 11.9505 32.2532 9.06219Z" fill="url(#paint5_linear)"/>
<path d="M8.60397 7.63635C8.41892 7.63635 8.23387 7.70947 8.08583 7.85571C7.78975 8.1482 7.78975 8.58692 8.08583 8.8794C8.38191 9.17188 8.82603 9.17188 9.1221 8.8794C9.41818 8.58692 9.41818 8.1482 9.1221 7.85571C8.97406 7.70947 8.78902 7.63635 8.60397 7.63635Z" fill="url(#paint6_linear)"/>
<path d="M39.3962 7.63635C39.2112 7.63635 39.0261 7.70947 38.8781 7.85571C38.582 8.1482 38.582 8.58692 38.8781 8.8794C39.1741 9.17188 39.6183 9.17188 39.9143 8.8794C40.2104 8.58692 40.2104 8.1482 39.9143 7.85571C39.7663 7.70947 39.5813 7.63635 39.3962 7.63635Z" fill="url(#paint7_linear)"/>
<path d="M3.5708 15.058C3.27472 15.058 3.01565 15.2408 2.90462 15.4968C2.75658 15.8624 2.94163 16.2645 3.31173 16.4473C3.68183 16.5936 4.08894 16.4108 4.27398 16.0452C4.42202 15.6796 4.23697 15.2774 3.86688 15.0946C3.75585 15.0946 3.68183 15.058 3.5708 15.058Z" fill="url(#paint8_linear)"/>
<path d="M44.4293 15.058C44.3183 15.058 44.2443 15.058 44.1333 15.0946C43.7632 15.2408 43.5781 15.6796 43.7262 16.0452C43.8742 16.4108 44.3183 16.5936 44.6884 16.4473C45.0585 16.3011 45.2436 15.8624 45.0955 15.4968C44.9845 15.2408 44.6884 15.058 44.4293 15.058Z" fill="url(#paint9_linear)"/>
<path d="M1.83102 25.2584C2.23982 25.2584 2.57121 24.931 2.57121 24.5272C2.57121 24.1233 2.23982 23.796 1.83102 23.796C1.42222 23.796 1.09082 24.1233 1.09082 24.5272C1.09082 24.931 1.42222 25.2584 1.83102 25.2584Z" fill="url(#paint10_linear)"/>
<path d="M46.1689 25.2584C46.5777 25.2584 46.9091 24.931 46.9091 24.5272C46.9091 24.1233 46.5777 23.796 46.1689 23.796C45.7601 23.796 45.4287 24.1233 45.4287 24.5272C45.4287 24.931 45.7601 25.2584 46.1689 25.2584Z" fill="url(#paint11_linear)"/>
<path d="M3.57045 32.5704C3.45942 32.5704 3.3854 32.5704 3.27438 32.6069C2.90428 32.7532 2.71923 33.1919 2.86727 33.5575C3.01531 33.9231 3.45942 34.1059 3.82952 33.9597C4.19962 33.8134 4.38467 33.3747 4.23663 33.0091C4.1256 32.7532 3.86653 32.5704 3.57045 32.5704Z" fill="url(#paint12_linear)"/>
<path d="M44.4294 32.5704C44.1334 32.5704 43.8743 32.7532 43.7633 33.0091C43.6152 33.3747 43.8003 33.7769 44.1704 33.9597C44.5405 34.1059 44.9476 33.9231 45.1326 33.5575C45.2807 33.1919 45.0956 32.7897 44.7255 32.6069C44.6145 32.6069 44.5035 32.5704 44.4294 32.5704Z" fill="url(#paint13_linear)"/>
<path d="M39.3962 39.9921C39.2112 39.9921 39.0261 40.0652 38.8781 40.2115C38.582 40.504 38.582 40.9427 38.8781 41.2352C39.1741 41.5277 39.6183 41.5277 39.9143 41.2352C40.2104 40.9427 40.2104 40.504 39.9143 40.2115C39.7663 40.0652 39.5813 39.9921 39.3962 39.9921Z" fill="url(#paint14_linear)"/>
<path d="M8.60397 39.9921C8.41892 39.9921 8.23387 40.0652 8.08583 40.2115C7.78975 40.504 7.78975 40.9427 8.08583 41.2352C8.38191 41.5277 8.82603 41.5277 9.1221 41.2352C9.41818 40.9427 9.41818 40.504 9.1221 40.2115C8.97406 40.0652 8.78902 39.9921 8.60397 39.9921Z" fill="url(#paint15_linear)"/>
<path d="M18.0043 40.0287C12.4159 37.4329 8.52982 31.6564 8.52982 24.9659C8.52982 18.3485 12.3788 12.6085 17.8563 9.9762L17.3012 8.87939C11.3796 11.6945 7.27148 17.8366 7.27148 24.9659C7.27148 32.1317 11.4536 38.3103 17.4492 41.1255L18.0043 40.0287Z" fill="url(#paint16_linear)"/>
<defs>
<linearGradient id="paint0_linear" x1="21.7717" y1="24.9878" x2="27.508" y2="24.9878" gradientUnits="userSpaceOnUse">
<stop stop-color="#316BAE"/>
<stop offset="1" stop-color="#C82F3F"/>
</linearGradient>
<linearGradient id="paint1_linear" x1="27.7434" y1="25.0005" x2="33.5156" y2="25.0005" gradientUnits="userSpaceOnUse">
<stop stop-color="#914760"/>
<stop offset="1" stop-color="#C82F3F"/>
</linearGradient>
<linearGradient id="paint2_linear" x1="15.7634" y1="24.9928" x2="21.8418" y2="24.9928" gradientUnits="userSpaceOnUse">
<stop stop-color="#316BAE"/>
<stop offset="1" stop-color="#5C5A89"/>
</linearGradient>
<linearGradient id="paint3_linear" x1="11.6331" y1="25.0058" x2="20.0714" y2="25.0058" gradientUnits="userSpaceOnUse">
<stop stop-color="#316BAE"/>
<stop offset="1" stop-color="#5C5A89"/>
</linearGradient>
<linearGradient id="paint4_linear" x1="29.4534" y1="25.0254" x2="37.6458" y2="25.0254" gradientUnits="userSpaceOnUse">
<stop stop-color="#914760"/>
<stop offset="1" stop-color="#C82F3F"/>
</linearGradient>
<linearGradient id="paint5_linear" x1="31.4587" y1="25.0591" x2="41.9823" y2="25.0591" gradientUnits="userSpaceOnUse">
<stop stop-color="#914760"/>
<stop offset="1" stop-color="#C82F3F"/>
</linearGradient>
<linearGradient id="paint6_linear" x1="7.8735" y1="8.35494" x2="9.32055" y2="8.35494" gradientUnits="userSpaceOnUse">
<stop stop-color="#316BAE"/>
<stop offset="1" stop-color="#C82F3F"/>
</linearGradient>
<linearGradient id="paint7_linear" x1="38.6767" y1="8.35622" x2="40.124" y2="8.35622" gradientUnits="userSpaceOnUse">
<stop stop-color="#316BAE"/>
<stop offset="1" stop-color="#C82F3F"/>
</linearGradient>
<linearGradient id="paint8_linear" x1="2.85277" y1="15.7781" x2="4.3003" y2="15.7781" gradientUnits="userSpaceOnUse">
<stop stop-color="#316BAE"/>
<stop offset="1" stop-color="#C82F3F"/>
</linearGradient>
<linearGradient id="paint9_linear" x1="43.6955" y1="15.7779" x2="45.1431" y2="15.7779" gradientUnits="userSpaceOnUse">
<stop stop-color="#316BAE"/>
<stop offset="1" stop-color="#C82F3F"/>
</linearGradient>
<linearGradient id="paint10_linear" x1="1.08982" y1="24.533" x2="2.53728" y2="24.533" gradientUnits="userSpaceOnUse">
<stop stop-color="#316BAE"/>
<stop offset="1" stop-color="#C82F3F"/>
</linearGradient>
<linearGradient id="paint11_linear" x1="45.4584" y1="24.533" x2="46.9058" y2="24.533" gradientUnits="userSpaceOnUse">
<stop stop-color="#316BAE"/>
<stop offset="1" stop-color="#C82F3F"/>
</linearGradient>
<linearGradient id="paint12_linear" x1="2.85213" y1="33.2882" x2="4.30025" y2="33.2882" gradientUnits="userSpaceOnUse">
<stop stop-color="#316BAE"/>
<stop offset="1" stop-color="#C82F3F"/>
</linearGradient>
<linearGradient id="paint13_linear" x1="43.6953" y1="33.2882" x2="45.1432" y2="33.2882" gradientUnits="userSpaceOnUse">
<stop stop-color="#316BAE"/>
<stop offset="1" stop-color="#C82F3F"/>
</linearGradient>
<linearGradient id="paint14_linear" x1="38.6765" y1="40.7102" x2="40.1235" y2="40.7102" gradientUnits="userSpaceOnUse">
<stop stop-color="#316BAE"/>
<stop offset="1" stop-color="#C82F3F"/>
</linearGradient>
<linearGradient id="paint15_linear" x1="7.8721" y1="40.7108" x2="9.31966" y2="40.7108" gradientUnits="userSpaceOnUse">
<stop stop-color="#316BAE"/>
<stop offset="1" stop-color="#C82F3F"/>
</linearGradient>
<linearGradient id="paint16_linear" x1="7.29647" y1="25.0214" x2="17.998" y2="25.0214" gradientUnits="userSpaceOnUse">
<stop stop-color="#316BAE"/>
<stop offset="1" stop-color="#5C5A89"/>
</linearGradient>
</defs>
</svg>

<svg width="48" height="50" fill="none" xmlns="http://www.w3.org/2000/svg"><path d="M21.78 25.002c0 1.573 1.295 2.816 2.85 2.816 1.59 0 2.85-1.28 2.85-2.816 0-1.572-1.296-2.815-2.85-2.815-1.592-.036-2.85 1.243-2.85 2.815z" fill="url(#paint0_linear)"/><path d="M32.29 25.003c0 3.071-1.85 5.703-4.552 6.91l.518 1.097c3.109-1.353 5.256-4.46 5.256-8.007 0-3.546-2.147-6.617-5.219-7.97l-.555 1.097c2.702 1.17 4.552 3.802 4.552 6.873z" fill="url(#paint1_linear)"/><path d="M17.005 25.002c0-3.18 1.999-5.922 4.849-7.02l-.556-1.096c-3.22 1.316-5.514 4.46-5.514 8.116 0 3.656 2.294 6.837 5.551 8.117l.518-1.097c-2.85-1.133-4.848-3.839-4.848-7.02z" fill="url(#paint2_linear)"/><path d="M19.559 36.811l.518-1.096c-4.22-1.755-7.217-5.923-7.217-10.713 0-4.789 2.96-8.92 7.143-10.675l-.555-1.097c-4.59 1.974-7.846 6.508-7.846 11.772.037 5.302 3.294 9.835 7.957 11.81z" fill="url(#paint3_linear)"/><path d="M30.144 13.34l-.555 1.097c4.034 1.865 6.81 5.886 6.81 10.566 0 4.716-2.85 8.774-6.959 10.602l.519 1.097c4.515-2.01 7.698-6.508 7.698-11.7 0-5.154-3.11-9.614-7.513-11.662z" fill="url(#paint4_linear)"/><path d="M32.253 9.062l-.555 1.097c5.33 2.705 9.03 8.336 9.03 14.843 0 6.618-3.812 12.321-9.289 14.954l.518 1.096c5.922-2.815 10.03-8.957 10.03-16.086 0-6.983-3.96-13.016-9.734-15.904z" fill="url(#paint5_linear)"/><path d="M8.604 7.636a.735.735 0 0 0-.518.22.7.7 0 0 0 0 1.023.722.722 0 0 0 1.036 0 .7.7 0 0 0 0-1.023.735.735 0 0 0-.518-.22z" fill="url(#paint6_linear)"/><path d="M39.396 7.636a.735.735 0 0 0-.518.22.7.7 0 0 0 0 1.023.722.722 0 0 0 1.036 0 .7.7 0 0 0 0-1.023.735.735 0 0 0-.518-.22z" fill="url(#paint7_linear)"/><path d="M3.57 15.058a.731.731 0 0 0-.665.439c-.148.365.037.768.407.95.37.147.777-.036.962-.402.148-.365-.037-.768-.407-.95-.111 0-.185-.037-.296-.037z" fill="url(#paint8_linear)"/><path d="M44.43 15.058c-.112 0-.186 0-.297.037a.739.739 0 0 0-.407.95.754.754 0 0 0 .962.402.739.739 0 0 0 .407-.95.774.774 0 0 0-.666-.439z" fill="url(#paint9_linear)"/><path d="M1.831 25.258c.409 0 .74-.327.74-.73a.736.736 0 0 0-.74-.732.736.736 0 0 0-.74.731c0 .404.331.731.74.731z" fill="url(#paint10_linear)"/><path d="M46.169 25.258c.409 0 .74-.327.74-.73a.736.736 0 0 0-.74-.732.736.736 0 0 0-.74.731c0 .404.331.731.74.731z" fill="url(#paint11_linear)"/><path d="M3.57 32.57c-.11 0-.185 0-.296.037a.739.739 0 0 0-.407.95.755.755 0 0 0 .963.403.739.739 0 0 0 .407-.95.731.731 0 0 0-.667-.44z" fill="url(#paint12_linear)"/><path d="M44.43 32.57a.731.731 0 0 0-.667.44c-.148.365.037.767.407.95.37.146.778-.037.963-.403.148-.365-.037-.767-.408-.95-.11 0-.221-.037-.296-.037z" fill="url(#paint13_linear)"/><path d="M39.396 39.992a.735.735 0 0 0-.518.22.7.7 0 0 0 0 1.023.721.721 0 0 0 1.036 0 .7.7 0 0 0 0-1.023.735.735 0 0 0-.518-.22z" fill="url(#paint14_linear)"/><path d="M8.604 39.992a.735.735 0 0 0-.518.22.7.7 0 0 0 0 1.023.722.722 0 0 0 1.036 0 .7.7 0 0 0 0-1.023.735.735 0 0 0-.518-.22z" fill="url(#paint15_linear)"/><path d="M18.004 40.029c-5.588-2.596-9.474-8.373-9.474-15.063 0-6.617 3.849-12.358 9.326-14.99l-.555-1.097c-5.921 2.816-10.03 8.958-10.03 16.087 0 7.166 4.183 13.344 10.178 16.16l.555-1.097z" fill="url(#paint16_linear)"/><defs><linearGradient id="paint0_linear" x1="21.772" y1="24.988" x2="27.508" y2="24.988" gradientUnits="userSpaceOnUse"><stop stop-color="#316BAE"/><stop offset="1" stop-color="#C82F3F"/></linearGradient><linearGradient id="paint1_linear" x1="27.743" y1="25" x2="33.516" y2="25" gradientUnits="userSpaceOnUse"><stop stop-color="#914760"/><stop offset="1" stop-color="#C82F3F"/></linearGradient><linearGradient id="paint2_linear" x1="15.763" y1="24.993" x2="21.842" y2="24.993" gradientUnits="userSpaceOnUse"><stop stop-color="#316BAE"/><stop offset="1" stop-color="#5C5A89"/></linearGradient><linearGradient id="paint3_linear" x1="11.633" y1="25.006" x2="20.071" y2="25.006" gradientUnits="userSpaceOnUse"><stop stop-color="#316BAE"/><stop offset="1" stop-color="#5C5A89"/></linearGradient><linearGradient id="paint4_linear" x1="29.453" y1="25.025" x2="37.646" y2="25.025" gradientUnits="userSpaceOnUse"><stop stop-color="#914760"/><stop offset="1" stop-color="#C82F3F"/></linearGradient><linearGradient id="paint5_linear" x1="31.459" y1="25.059" x2="41.982" y2="25.059" gradientUnits="userSpaceOnUse"><stop stop-color="#914760"/><stop offset="1" stop-color="#C82F3F"/></linearGradient><linearGradient id="paint6_linear" x1="7.873" y1="8.355" x2="9.321" y2="8.355" gradientUnits="userSpaceOnUse"><stop stop-color="#316BAE"/><stop offset="1" stop-color="#C82F3F"/></linearGradient><linearGradient id="paint7_linear" x1="38.677" y1="8.356" x2="40.124" y2="8.356" gradientUnits="userSpaceOnUse"><stop stop-color="#316BAE"/><stop offset="1" stop-color="#C82F3F"/></linearGradient><linearGradient id="paint8_linear" x1="2.853" y1="15.778" x2="4.3" y2="15.778" gradientUnits="userSpaceOnUse"><stop stop-color="#316BAE"/><stop offset="1" stop-color="#C82F3F"/></linearGradient><linearGradient id="paint9_linear" x1="43.696" y1="15.778" x2="45.143" y2="15.778" gradientUnits="userSpaceOnUse"><stop stop-color="#316BAE"/><stop offset="1" stop-color="#C82F3F"/></linearGradient><linearGradient id="paint10_linear" x1="1.09" y1="24.533" x2="2.537" y2="24.533" gradientUnits="userSpaceOnUse"><stop stop-color="#316BAE"/><stop offset="1" stop-color="#C82F3F"/></linearGradient><linearGradient id="paint11_linear" x1="45.458" y1="24.533" x2="46.906" y2="24.533" gradientUnits="userSpaceOnUse"><stop stop-color="#316BAE"/><stop offset="1" stop-color="#C82F3F"/></linearGradient><linearGradient id="paint12_linear" x1="2.852" y1="33.288" x2="4.3" y2="33.288" gradientUnits="userSpaceOnUse"><stop stop-color="#316BAE"/><stop offset="1" stop-color="#C82F3F"/></linearGradient><linearGradient id="paint13_linear" x1="43.695" y1="33.288" x2="45.143" y2="33.288" gradientUnits="userSpaceOnUse"><stop stop-color="#316BAE"/><stop offset="1" stop-color="#C82F3F"/></linearGradient><linearGradient id="paint14_linear" x1="38.676" y1="40.71" x2="40.123" y2="40.71" gradientUnits="userSpaceOnUse"><stop stop-color="#316BAE"/><stop offset="1" stop-color="#C82F3F"/></linearGradient><linearGradient id="paint15_linear" x1="7.872" y1="40.711" x2="9.32" y2="40.711" gradientUnits="userSpaceOnUse"><stop stop-color="#316BAE"/><stop offset="1" stop-color="#C82F3F"/></linearGradient><linearGradient id="paint16_linear" x1="7.296" y1="25.021" x2="17.998" y2="25.021" gradientUnits="userSpaceOnUse"><stop stop-color="#316BAE"/><stop offset="1" stop-color="#5C5A89"/></linearGradient></defs></svg>
